X:1
T: Marlbrouk
N:
C:
S:
A:
O:
R:
M:6/8
K:G
I:speed 150
%W: A1
% voice 1 (1 lines, 35 notes)
K:G
M:6/8
L:1/16
G2 |B4 B2 B2 A2 B2 c6 B2 c2 B2 A4 A2 A2 G2 A2 B6 G4 G2 |B4 B2 B2 A2 B2 c6 B2 c2 d2 B4 G2 A2 G2 A2 G6G4 G2 |
%W: A2
% voice 1 (1 lines, 34 notes)
B4 B2 B2 A2 B2 c6 B2 c2 B2 A4 A2 A2 G2 A2 B6 G4 G2 |B4 B2 B2 A2 B2 c6 B2 c2 d2 B4 G2 A2 G2 A2 G6G4 d2 |
%W: B1
% voice 1 (1 lines, 24 notes)
d4 B2 e4 e2 d6d4 d2 d2 B2 d2 e2 f2 g2 d6d4 d2 |g4 g2 g4 f2 e6 d2 e2 d2
%W:
% voice 1 (1 lines, 24 notes)
c4 c2 c2 B2 c2 d6 B4 d2 |g4 g2 g4 f2 e6 d4 c2 B2 d2 g2 A2 d2 f2 g6 g4 d2 |
%W: B2
% voice 1 (1 lines, 24 notes)
d4 B2 e4 e2 d6d4 d2 d2 B2 d2 e2 f2 g2 d6d4 d2 |g4 g2 g4 f2 e6 d2 e2 d2
%W:
% voice 1 (1 lines, 23 notes)
c4 c2 c2 B2 c2 d6 B4 d2 |g4 g2 g4 f2 e6 d4 c2 B2 d2 g2 A2 d2 f2 g6 g4 ||
